icons/sync-16.svg

<svg xmlns="http://www.w3.org/2000/svg" width="16" height="16" viewBox="0 0 16 16"><path d="M1.705 8.005a.75.75 0 01.834.656 5.5 5.5 0 009.592 2.97l-1.204-1.204a.25.25 0 01.177-.427h3.646a.25.25 0 01.25.25v3.646a.25.25 0 01-.427.177l-1.38-1.38A7.002 7.002 0 011.05 8.84a.75.75 0 01.656-.834zM8 2.5a5.487 5.487 0 00-4.131 1.869l1.204 1.204A.25.25 0 014.896 6H1.25A.25.25 0 011 5.75V2.104a.25.25 0 01.427-.177l1.38 1.38A7.002 7.002 0 0114.95 7.16a.75.75 0 01-1.49.178A5.5 5.5 0 008 2.5z"/></svg>

<svg xmlns="http://www.w3.org/2000/svg" width="16" height="16" viewBox="0 0 16 16">
  <defs/>
  <path d="M1.705,8.005 C2.117,7.956 2.49,8.249 2.539,8.661 C2.8,10.814 4.302,12.612 6.373,13.253 C8.444,13.895 10.699,13.259 12.131,11.631 L10.927,10.427 C10.855,10.355 10.834,10.248 10.873,10.154 C10.911,10.061 11.003,10 11.104,10 L14.75,10 C14.888,10 15,10.112 15,10.25 L15,13.896 C15,13.997 14.939,14.089 14.846,14.127 C14.752,14.166 14.645,14.145 14.573,14.073 L13.193,12.693 C11.354,14.727 8.496,15.5 5.883,14.671 C3.269,13.841 1.38,11.562 1.05,8.84 C1.001,8.429 1.294,8.055 1.706,8.006 Z M8,2.5 C6.418,2.498 4.912,3.18 3.869,4.369 L5.073,5.573 C5.145,5.645 5.166,5.752 5.127,5.846 C5.089,5.939 4.997,6 4.896,6 L1.25,6 C1.112,6 1,5.888 1,5.75 L1,2.104 C1,2.003 1.061,1.911 1.154,1.873 C1.248,1.834 1.355,1.855 1.427,1.927 L2.807,3.307 C4.646,1.273 7.504,0.5 10.117,1.329 C12.731,2.159 14.62,4.438 14.95,7.16 C14.999,7.571 14.705,7.945 14.294,7.994 C13.883,8.043 13.509,7.749 13.46,7.338 C13.125,4.577 10.781,2.5 8,2.5 Z"/>
</svg>
